packages/components/icons/assets/CarFill.svg

<svg viewBox="0 0 24 24" xmlns="http://www.w3.org/2000/svg" data-title="CarFill" fill="currentColor" stroke="none">
  <path fill-rule="evenodd" clip-rule="evenodd" d="M20.9895 10.6751L21.1398 10.6253C21.2637 10.5812 21.3776 10.5132 21.4751 10.4253C21.5726 10.3373 21.6517 10.2311 21.7079 10.1128C21.7641 9.99445 21.7964 9.86624 21.8027 9.73551C21.8091 9.60478 21.7896 9.47409 21.7452 9.35088C21.7007 9.22767 21.6323 9.11436 21.5439 9.01743C21.4555 8.9205 21.3487 8.84184 21.2297 8.78594C21.1107 8.73005 20.9818 8.69799 20.8503 8.69164C20.7188 8.68528 20.5874 8.70474 20.4634 8.7489L19.1442 9.21385C19.0472 9.25363 18.9548 9.30373 18.8687 9.36329L18.2508 6.87247C18.0456 6.05157 17.5699 5.32268 16.8995 4.80201C16.229 4.28133 15.4026 3.99889 14.5519 3.99976H9.10793C8.25726 3.99889 7.43081 4.28133 6.7604 4.80201C6.08999 5.32268 5.61424 6.05157 5.40903 6.87247L4.80783 9.23878L3.49698 8.59115C3.37896 8.52447 3.24853 8.48234 3.11364 8.46729C2.97875 8.45225 2.8422 8.46465 2.71226 8.50368C2.58232 8.54271 2.46167 8.60759 2.35771 8.69437C2.25376 8.78116 2.16865 8.88801 2.10749 9.00851C2.04633 9.12901 2.0104 9.26061 2.00195 9.39532C1.99349 9.53004 2.01265 9.66509 2.05826 9.79222C2.10387 9.91934 2.17501 10.0359 2.26731 10.1349C2.3596 10.2339 2.47115 10.3131 2.5952 10.3679L3.1379 10.6419C2.79331 10.9602 2.51838 11.3456 2.33019 11.7741C2.14201 12.2026 2.04459 12.6651 2.04409 13.1328V17.2094C2.04629 17.9046 2.32499 18.5706 2.81933 19.0622C3.31367 19.5538 3.98352 19.8309 4.68261 19.8331H5.51758C6.03614 19.8328 6.54297 19.6796 6.97398 19.3929C7.40499 19.1062 7.74078 18.6989 7.93895 18.2224H16.1049C16.3022 18.6995 16.6378 19.1075 17.069 19.3943C17.5002 19.6812 18.0076 19.8339 18.5264 19.8331H19.3613C20.0604 19.8309 20.7302 19.5538 21.2246 19.0622C21.7189 18.5706 21.9976 17.9046 21.9998 17.2094V13.1328C22.0046 12.6768 21.9177 12.2246 21.7442 11.8025C21.5707 11.3805 21.3141 10.9972 20.9895 10.6751ZM17.6496 15.2085H16.2469C15.9856 15.2085 15.735 15.1052 15.5502 14.9215C15.3655 14.7377 15.2616 14.4886 15.2616 14.2287C15.2616 13.9689 15.3655 13.7197 15.5502 13.5359C15.735 13.3522 15.9856 13.249 16.2469 13.249H17.6496C17.9109 13.249 18.1615 13.3522 18.3463 13.5359C18.5311 13.7197 18.6349 13.9689 18.6349 14.2287C18.6349 14.4886 18.5311 14.7377 18.3463 14.9215C18.1615 15.1052 17.9109 15.2085 17.6496 15.2085ZM5.42575 14.2287C5.42575 13.9689 5.52952 13.7197 5.7143 13.5359C5.89907 13.3522 6.14969 13.249 6.411 13.249H7.81374C8.07505 13.249 8.32562 13.3522 8.51039 13.5359C8.69517 13.7197 8.79899 13.9689 8.79899 14.2287C8.79899 14.4886 8.69517 14.7377 8.51039 14.9215C8.32562 15.1052 8.07505 15.2085 7.81374 15.2085H6.411C6.15553 15.1998 5.91341 15.0928 5.7358 14.91C5.55819 14.7272 5.45898 14.4829 5.45913 14.2287H5.42575ZM7.31273 7.38729C7.4128 6.9981 7.64027 6.65303 7.95924 6.40651C8.2782 6.15999 8.67057 6.02601 9.07455 6.02563H14.5185C14.9218 6.02497 15.3137 6.15872 15.6315 6.40555C15.9494 6.65237 16.1749 6.99806 16.272 7.38729L16.8647 9.73693H6.76167L7.31273 7.38729Z"/>
</svg>

<svg viewBox="0 0 24 24" xmlns="http://www.w3.org/2000/svg" data-title="CarFill" fill="currentColor" stroke="none">
  <path fill-rule="evenodd" d="m20.99,10.76l.15-.05c.12-.04.24-.11.34-.2.1-.09.18-.19.23-.31.06-.12.09-.25.09-.38,0-.13-.01-.26-.06-.38-.04-.12-.11-.24-.2-.33-.09-.1-.2-.18-.31-.23-.12-.06-.25-.09-.38-.09-.13,0-.26.01-.39.06l-1.32.46c-.1.04-.19.09-.28.15l-.62-2.49c-.21-.82-.68-1.55-1.35-2.07-.67-.52-1.5-.8-2.35-.8h-5.44c-.85,0-1.68.28-2.35.8-.67.52-1.15,1.25-1.35,2.07l-.6,2.37-1.31-.65c-.12-.07-.25-.11-.38-.12-.13-.02-.27,0-.4.04s-.25.1-.35.19c-.1.09-.19.19-.25.31-.06.12-.1.25-.11.39,0,.13.01.27.06.4.05.13.12.24.21.34.09.1.2.18.33.23l.54.27c-.34.32-.62.7-.81,1.13-.19.43-.29.89-.29,1.36v4.08c0,.7.28,1.36.78,1.85s1.16.77,1.86.77h.83c.52,0,1.03-.15,1.46-.44.43-.29.77-.69.96-1.17h8.17c.2.48.53.89.96,1.17.43.29.94.44,1.46.44h.83c.7,0,1.37-.28,1.86-.77.49-.49.77-1.16.78-1.85v-4.08c0-.46-.08-.91-.26-1.33-.17-.42-.43-.81-.75-1.13Zm-3.34,4.53h-1.4c-.26,0-.51-.1-.7-.29-.18-.18-.29-.43-.29-.69s.1-.51.29-.69c.18-.18.44-.29.7-.29h1.4c.26,0,.51.1.7.29.18.18.29.43.29.69s-.1.51-.29.69c-.18.18-.44.29-.7.29Zm-12.22-.98c0-.26.1-.51.29-.69.18-.18.44-.29.7-.29h1.4c.26,0,.51.1.7.29.18.18.29.43.29.69s-.1.51-.29.69c-.18.18-.44.29-.7.29h-1.4c-.26,0-.5-.12-.68-.3-.18-.18-.28-.43-.28-.68h-.03Zm1.89-6.84c.1-.39.33-.73.65-.98.32-.25.71-.38,1.12-.38h5.44c.4,0,.8.13,1.11.38.32.25.54.59.64.98l.59,2.35H6.76l.55-2.35Z"/>
</svg>
